X:1
T:Title
%%score { ( 1 3 ) | 2 }
L:1/8
Q:1/4=96
M:4/4
K:Bb
V:1 treble nm="Grand Piano"
V:3 treble 
V:2 bass 
V:1
 [DF]2 [DB]>[Ec] B2 A2 | AAGA [DB]2 [DF]2 | [EG]2 [GB]>G F2 [Fd]2 | [Fc][FA][GB][=EG] F4 | %4
w: J.~H.~Rosecrans * * * *||||
 [DF]2 [DB]>[Ec] B2 A2 | AAGA [DB]2 [DF]2 | [EG]2 [GB]>G F2 [Fd]2 | cBAc [DB]4 | d>d d2 B>B B2 | %9
w: |||||
 [=Ec][GB][FA][EG] [FA]>[GB] [Ac]2 | d>d d2 B>B B2 | [=Ec][GB][FA][EG] z2 _E2 | %12
w: |||
 [DF]2 [DB]>[Ec] B2 A2 | AAGA [DB]2 [DF]2 | [EG]2 [GB]>G F2 [Fd]2 |[M:8/4] cBAc [DB]4 z8 |] %16
w: ||||
V:2
 [B,,B,]2 [B,,F,]>[B,,F,] [F,D]2 [F,C]2 | [F,C][F,C][F,CE][F,CE] [B,,B,]2 [B,,B,]2 | %2
 [E,B,]2 [E,B,]>[E,B,E] [D,B,]2 [B,,B,]2 | [C,A,][C,C][C,C][C,B,] [F,A,]4 | %4
 [B,,B,]2 [B,,F,]>[B,,F,] [F,D]2 [F,C]2 | [F,C][F,C][F,CE][F,CE] [B,,B,]2 [B,,B,]2 | %6
 [E,B,]2 [E,B,]>[E,B,E] [D,B,]2 [B,,B,]2 | [F,E][F,D][F,C][F,E] [B,,F,]4 | %8
 [B,F]>[B,F] [B,F]2 [G,DG]>[G,DG] [G,DG]2 | [C,C][C,C][C,C][C,C] [F,C]2 [F,C]2 | %10
 [B,F]>[B,F] [B,F]2 [G,DG]>[G,DG] [G,DG]2 | [C,C][C,C][C,C][C,B,] [F,A,]4 | %12
 [B,,B,]2 [B,,F,]>[B,,F,] [F,D]2 [F,C]2 | [F,C][F,C][F,CE][F,CE] [B,,B,]2 [B,,B,]2 | %14
 [E,B,]2 [E,B,]>[E,B,E] [D,B,]2 [B,,B,]2 |[M:8/4] [F,E][F,D][F,C][F,E] [B,,F,]4 z8 |] %16
V:3
 x8 | x8 | x8 | x8 | x8 | x8 | x8 | x8 | x8 | x8 | x8 | z4 F4 | x8 | x8 | x8 |[M:8/4] x16 |] %16

